X:1
T:Gavotte
T:in G major
T:George Frideric Handel
T:HWV 491
T:1705
T:1705
Z:1705
%%score 1 2
L:1/8
Q:1/4=100
M:4/4
K:G
V:1 treble nm="Violin" snm="Vln."
V:2 bass nm="Violoncello" snm="Vlc."
V:1
!f! (GA) | B2 AG d2 ef | g6 (gf) | (fe)!>(! (ed) (dc) (cB)!>)! | A6!mf! (GA) | B2 AG d2 ef | %6
!>(! g6!>)! (ag) | f2 ed f2 ed | d6 ::!p! (fg) | a2 gf gfga | b6 (b^d) | e^def g2 (fe) | e6 (gf) | %14
 (fe) (ed) (dc) (cB) | c6 (ed) | (dc) (cB) (BA) (AG) | F6 GD | E2 AE F2 BF | G2 cG A2 dA | %20
 B2 AG B2 AG | G6 :| %22
V:2
[K:C] z2 | G,2 A,,2 G,2 F,2 | E,6 B,2 | C2 B,2 A,2 G,2 | D2 A,2 D,2 z2 | G,2 A,,2 G,2 F,2 | %6
 E,6 ^C,2 | D,2 G,2 A,2 A,,2 | D,2 A,,2 D,,2 :: D,2 | F,2 E,2 E,2 F,2 | G,2 G,,2 G,2 B,2 | %12
 C2 A,2 B,2 B,,2 | E,2 B,2 E2 B,2 | C,2 B,,2 A,,2 G,,2 | A,,2 E,2 A,2 G,2 | A,2 G,2 F,2 E,2 | %17
 D,2 D,,2 D,2 B,,2 | C,2 C,,2 D,2 D,,2 | E,2 E,,2 F,2 F,,2 | G,2 C,2 D,2 D,,2 | G,2 D,2 G,,2 :| %22

